X:1
T:Bridge Inn, The
S:Trad: Henry Cave, noted by C Sharp
S:Philip Heath-Coleman FMJ v10/2 p199
S:Chris Partington <cpartington@outlook.com> tradtunes 2013-2-9
M:2/4
L:1/8
Q:1/2=88
Z:Chris Partington
K:G
B,>DG>E | C>EA>G | F>Ad>c | B>dg>f | edeB | cBAB | AG (3FGE | D2 D>C |
B,>DG>E | C>EA>G | F>Ad>c | B>dg>f | edeB | cAEF | GFGA | !fine!G3 :|
d | gfge | ^cegf | ede^c | A=cec | d^cdB | GB=cB | AG (3FGE | D2 D>C |
B,>DG>E | C>EA>G | F>Ad>c | B>dg>f | edeB | cAEF | GFGA | !D.C.!G3 |]
